assets/img/logos/braze-logo-monogram-purple.svg

<svg fill="none" height="35" viewBox="0 0 36 35" width="36" xmlns="http://www.w3.org/2000/svg"><ellipse cx="17.6434" cy="17.5" fill="#801ed7" rx="17.6434" ry="17.5"/><g fill="#fff"><path clip-rule="evenodd" d="m17.6919 5.32469c-6.6717 0-12.0803 5.40851-12.0803 12.08031s5.4086 12.0804 12.0803 12.0804c6.6718 0 12.0804-5.4086 12.0804-12.0804s-5.4086-12.08031-12.0804-12.08031zm-14.53614 12.08031c0-8.02808 6.50807-14.53615 14.53614-14.53615 8.0282 0 14.5362 6.50807 14.5362 14.53615 0 8.0281-6.508 14.5362-14.5362 14.5362-8.02807 0-14.53614-6.5081-14.53614-14.5362z" fill-rule="evenodd"/><path d="m18.7692 26.4679c2.5469-.2828 4.0925-2.627 4.7477-3.8382.6433-1.2208 1.0093-2.5232 1.1558-3.7868.0515-.3826.08-.7217.088-1.037.0261-1.0092-.1276-1.8728-.469-2.642-.7407-1.666-2.0439-2.539-3.8739-2.5945-.9039-.0277-1.7983.1719-2.5977.576.1965-.7772.7582-3.0952 1.0663-5.3696.0476-.34936-.0467-.68446-.2638-.94351-.2154-.25826-.5268-.40799-.8761-.42304-.6473-.02931-1.1923.43334-1.2755 1.07265-.4642 3.5879-1.5694 8.2263-2.7497 11.5424-.6132 1.7231-1.7706 3.1475-3.3463 4.1187-.0563.0349-.1363.0776-.2369.1283-.5775.2908-.84527.9634-.62187 1.5639.12359.3327.38343.5989.71377.7312.3304.1315.7019.118 1.0204-.0381.9847-.4816 1.8569-1.1201 2.5937-1.8981.915 1.9774 2.4407 3.1126 4.9243 2.8369zm-2.0201-3.0864c-.4381-.4247-.6988-.9919-.7748-1.6843-.2123-1.9187.3533-3.6869 1.6819-5.2555.3422-.404.7367-.7288 1.1724-.9649.3858-.2091.7946-.3097 1.1875-.3097.694 0 1.3373.3145 1.7104.8991.2979.4666.4603 1.0236.4959 1.7017.0135.2606.0064.5268 0 .7407-.0024.08-.0039.1537-.0047.2163-.2615 1.7983-.9253 3.1585-2.0899 4.2819-.423.4079-.8595.6765-1.3348.8191-.8144.2456-1.4838.0998-2.0439-.4444z"/></g></svg>

<svg width="36" height="35" viewBox="0 0 36 35" fill="none" xmlns="http://www.w3.org/2000/svg">
<ellipse cx="17.6434" cy="17.5" rx="17.6434" ry="17.5" fill="#801ED7"/>
<path fill-rule="evenodd" clip-rule="evenodd" d="M17.6919 5.32469C11.0202 5.32469 5.6116 10.7332 5.6116 17.405C5.6116 24.0768 11.0202 29.4854 17.6919 29.4854C24.3637 29.4854 29.7723 24.0768 29.7723 17.405C29.7723 10.7332 24.3637 5.32469 17.6919 5.32469ZM3.15576 17.405C3.15576 9.37692 9.66383 2.86885 17.6919 2.86885C25.7201 2.86885 32.2281 9.37692 32.2281 17.405C32.2281 25.4331 25.7201 31.9412 17.6919 31.9412C9.66383 31.9412 3.15576 25.4331 3.15576 17.405Z" fill="white"/>
<path d="M18.7692 26.4679C21.3161 26.1851 22.8617 23.8409 23.5169 22.6297C24.1602 21.4089 24.5262 20.1065 24.6727 18.8429C24.7242 18.4603 24.7527 18.1212 24.7607 17.8059C24.7868 16.7967 24.6331 15.9331 24.2917 15.1639C23.551 13.4979 22.2478 12.6249 20.4178 12.5694C19.5139 12.5417 18.6195 12.7413 17.8201 13.1454C18.0166 12.3682 18.5783 10.0502 18.8864 7.7758C18.934 7.42644 18.8397 7.09134 18.6226 6.83229C18.4072 6.57403 18.0958 6.4243 17.7465 6.40925C17.0992 6.37994 16.5542 6.84259 16.471 7.4819C16.0068 11.0698 14.9016 15.7082 13.7213 19.0243C13.1081 20.7474 11.9507 22.1718 10.375 23.143C10.3187 23.1779 10.2387 23.2206 10.1381 23.2713C9.5606 23.5621 9.29283 24.2347 9.51623 24.8352C9.63982 25.1679 9.89966 25.4341 10.23 25.5664C10.5604 25.6979 10.9319 25.6844 11.2504 25.5283C12.2351 25.0467 13.1073 24.4082 13.8441 23.6302C14.7591 25.6076 16.2848 26.7428 18.7684 26.4671L18.7692 26.4679ZM16.7491 23.3815C16.311 22.9568 16.0503 22.3896 15.9743 21.6972C15.762 19.7785 16.3276 18.0103 17.6562 16.4417C17.9984 16.0377 18.3929 15.7129 18.8286 15.4768C19.2144 15.2677 19.6232 15.1671 20.0161 15.1671C20.7101 15.1671 21.3534 15.4816 21.7265 16.0662C22.0244 16.5328 22.1868 17.0898 22.2224 17.7679C22.2359 18.0285 22.2288 18.2947 22.2224 18.5086C22.22 18.5886 22.2185 18.6623 22.2177 18.7249C21.9562 20.5232 21.2924 21.8834 20.1278 23.0068C19.7048 23.4147 19.2683 23.6833 18.793 23.8259C17.9786 24.0715 17.3092 23.9257 16.7491 23.3815Z" fill="white"/>
</svg>
